X:1
M:4/4
K:G
L:1/8
C:trad
D |B,DG>G EGDD |B,DD>B, B,A,2D |
B,DGG EGDD [1B,DA,>C B,G,2 :[2B,DA,>C B,G,3 |
GGG2 GGG2 |GED>B, B,A,2 z/2G/2 |
GGGG G<GGG |GEDB, A,G,2 z/2G/2 |
GGGG GGGG |GEFG A3A |
BGA>F G>EDD |EGAF GDEF |z7 :|
